X:3
T:Mazurka GC 2+ (mz02116)
S:Hanny Christen. Bd.II  St. Gallen II, GraubÃ¼nden, Tessin. S.322 (mz02116) orig. F,Bb
S:GraubÃ¼nden. Gla Genua, Sent. S.299-329. Ãœberliefert vermutlich durch Nott Caviezel
O:Switzerland
%%MIDI program 21
R:Mazurka
M:3/4
L:1/8
K:G %%MIDI gchordon
"G"G>B d>g a>g | f>^de4 | "D7"F>e F>e d>^c | "G"d>^AB4 | G>B d>g a>g | "C"f>^de4 | 
"D7"e>d fe c>A | "G"G2g2"_Fine"z2 :: !>!"Em"b2 (ag fe) | "B7"e>^df4 | B2^d2f2 | "Em"a2gfe2 | 
!>!b2 ag fe | "B7"e>^d f4 | {/f}"Em"e^d ef "C"ga | "B7"b2b2"_>Teil A"z2 :| [K:C] "C".e2 (cB) (dc) | G>AG4 | 
EG ce fe | "F"d>FA4 | f2d^c ed | A>BA4 | "G7"GB dg b>a | "C"ag ec .e2 | .e2 (cB) (dc) | 
G>AG4 | EG ce fe | "F"d>FA4 |f>dA2f2 | "C"e>cG2c2 | "G7"Bd ag fB | "C"c2c'2"_>Teil A"z2 |] 
W:Parts: ABACA
% mz02116  (4 Nov 2016)

